X: 18
T:Packing My Things
M:3/4
L:1/4
Q:80
K:D
A,A,|"D"DFD|"A"C<EC|"D"D3|"D7"F2F|
"G"ED2|D2B,|"D"A,3-|A,FG|!
"D7"A>AA|A2F|"G"ED2-|DEF|
"A7"G2E|"D"FED|"G7"EA2-|AB,C|!
"D"D>DD|"E"EE2|"A"A,3|"A7"A,"Chorus:"GE|
"D"FD2|"G7"zGE|"D"FD2-|D2D|!
D>DD|DEF|"G"G3-|G2G|
"A7"AAA|E<FG|"D"F>EF|"G"G<FG|!
"A7"A>BA|GFE|"D"D3|"A"z3|"D"z3|z:||
